src/actions/symbolic/grid-axonometric-symbolic.svg

<svg width="16" height="16" version="1.1" viewBox="0 0 16 16" xmlns="http://www.w3.org/2000/svg">
 <path d="m7.0195 0v0.97266l-1.5664-0.89453-0.51172 0.85742 1.3613 0.7832-3.3027 1.791v-2.5098h-0.99414v2.8574l-1.459-0.85742-0.54688 0.91602 1.0801 0.63281-1.0801 0.58594 0.52539 0.86523 1.4805-0.80273v4.6348l-1.4883-0.83203-0.51758 0.875 1.0586 0.58984-1.0586 0.62109 0.51562 0.91406 1.4902-0.875v3.875h0.99414v-3.4551l3.5527 1.9785-2.5527 1.5742 0.48438 0.90234 2.5352-1.5625v1.5625h0.99414v-1.6641l2.9863 1.6641 0.51758-0.84375-2.9687-1.6602 3.4375-2.1172v3.6211h0.99414v-3.4688l2.5039 1.4688 0.51562-0.91406-2.6426-1.5527 2.6426-1.6289-0.48438-0.9043-2.5352 1.5625v-4.0039l2.5078 1.4414 0.51172-0.88867-2.7578-1.5781 2.7578-1.6172-0.51562-0.91602-2.5039 1.4688v-2.4688h-0.99414v2.8145l-3.6133-2.0664 1.627-0.88086-0.52539-0.86719-1.4609 0.79102v-0.79102h-0.99414zm0 2.4805v4.3262l-3.8281-2.252 3.8281-2.0742zm0.99414 0.2207 3.168 1.8223-3.168 1.8594v-3.6816zm3.9727 2.5684v4.457l-3.793-2.2305 3.793-2.2266zm-8.9863 0.40625 3.1094 1.8242-3.1094 1.8242v-3.6484zm4.0195 2.5098v4.4551l-3.8867-2.1758 3.8867-2.2793zm0.99414 0.43164 3.3301 1.9531-3.3301 2.0527v-4.0059z" fill="#363636"/>
</svg>

<svg xmlns="http://www.w3.org/2000/svg" width="16" height="16">
    <path fill="#050505" fill-opacity=".7" d="M7.02 0v.973L5.453.078l-.512.858 1.362.783L3 3.509V1h-.994v2.857L.546 3 0 3.916l1.08.633L0 5.135.525 6l1.48-.803v4.635L.519 9 0 9.875l1.059.59-1.059.62.516.915 1.49-.875V15H3v-3.455l3.553 1.978L4 15.098l.484.902 2.536-1.563V16h.994v-1.664L11 16l.518-.844-2.97-1.66 3.438-2.117v3.62h.994v-3.468L15.484 13l.516-.914-2.643-1.553L16 8.904 15.516 8 12.98 9.562V5.558L15.488 7 16 6.11l-2.758-1.578L16 2.916 15.484 2 12.98 3.469V.999h-.994v2.815L8.373 1.748 10 .868 9.475 0 8.014.791V0H7.02zm0 2.48v4.327L3.19 4.555 7.02 2.48zm.994.221 3.168 1.823-3.168 1.859V2.7zm3.972 2.569v4.457l-3.793-2.23 3.793-2.227zM3 5.676 6.11 7.5 3 9.324V5.676zm4.02 2.51v4.455l-3.887-2.176 3.887-2.28zm.994.431 3.33 1.953-3.33 2.053V8.617z"/>
</svg>
